assets/img/icons/icon-newsletter.svg

<svg width="38px" height="48px" viewBox="0 0 38 48" version="1.1" xmlns="http://www.w3.org/2000/svg" xmlns:xlink="http://www.w3.org/1999/xlink" xmlns:sketch="http://www.bohemiancoding.com/sketch/ns">
    <defs>
        <path id="path-1" d="M0,0 L38,0 L38,48 L0,48 L0,0 Z"></path>
    </defs>
    <g id="-Blog" stroke="none" stroke-width="1" fill="none" fill-rule="evenodd" sketch:type="MSPage">
        <g id="Taxonomy-view" sketch:type="MSArtboardGroup" transform="translate(-100.000000, -1216.000000)">
            <g id="Group" sketch:type="MSLayerGroup" transform="translate(100.000000, 1216.000000)">
                <path d="M37.1363636,34.4 L37.1363636,2.8168 C37.1363636,1.708 36.1768636,0.8 35.0023182,0.8 L2.99768182,0.8 C1.82313636,0.8 0.863636364,1.708 0.863636364,2.8168 L0.863636364,45.1816 C0.863636364,46.292 1.82313636,47.2 2.99768182,47.2 L23.3181818,47.2" id="Stroke-1" stroke="#9F4EE9" stroke-width="1.5" stroke-linecap="round" stroke-linejoin="round" sketch:type="MSShapeGroup"></path>
                <path d="M37.1363636,34.4 L23.3181818,34.4 L23.3181818,47.2 L37.1363636,34.4 L37.1363636,34.4 Z" id="Stroke-3" stroke="#9F4EE9" stroke-width="1.5" stroke-linecap="round" stroke-linejoin="round" sketch:type="MSShapeGroup"></path>
                <mask id="mask-2" sketch:name="Clip 6" fill="white">
                    <use xlink:href="#path-1"></use>
                </mask>
                <g id="Clip-6"></g>
                <path d="M16.4090909,17.6 L6.04545455,17.6 L6.04545455,8 L16.4090909,8 L16.4090909,17.6 Z" id="Stroke-5" stroke="#9F4EE9" stroke-width="1.5" stroke-linecap="round" stroke-linejoin="round" sketch:type="MSShapeGroup" mask="url(#mask-2)"></path>
                <path d="M6.04545455,23.2 L31.9545455,23.2" id="Stroke-7" stroke="#9F4EE9" stroke-width="1.5" stroke-linecap="round" stroke-linejoin="round" sketch:type="MSShapeGroup" mask="url(#mask-2)"></path>
                <path d="M21.5909091,17.6 L31.9545455,17.6" id="Stroke-8" stroke="#9F4EE9" stroke-width="1.5" stroke-linecap="round" stroke-linejoin="round" sketch:type="MSShapeGroup" mask="url(#mask-2)"></path>
                <path d="M21.5909091,11.2 L31.9545455,11.2" id="Stroke-9" stroke="#9F4EE9" stroke-width="1.5" stroke-linecap="round" stroke-linejoin="round" sketch:type="MSShapeGroup" mask="url(#mask-2)"></path>
                <path d="M6.04545455,28.8 L31.9545455,28.8" id="Stroke-10" stroke="#9F4EE9" stroke-width="1.5" stroke-linecap="round" stroke-linejoin="round" sketch:type="MSShapeGroup" mask="url(#mask-2)"></path>
                <path d="M6.04545455,34.4 L18.1363636,34.4" id="Stroke-11" stroke="#9F4EE9" stroke-width="1.5" stroke-linecap="round" stroke-linejoin="round" sketch:type="MSShapeGroup" mask="url(#mask-2)"></path>
            </g>
        </g>
    </g>
</svg>

<svg xmlns="http://www.w3.org/2000/svg" viewBox="0 0 38 48" xmlns:xlink="http://www.w3.org/1999/xlink">
    <path fill="none" fill-rule="evenodd" stroke="#9F4EE9" stroke-width="1.5" stroke-linecap="round" stroke-linejoin="round" d="M37.14 34.4V2.82c0-1.1-.96-2.02-2.14-2.02H3C1.82.8.86 1.7.86 2.82v42.36c0 1.1.96 2.02 2.14 2.02h20.32 M37.14 34.4H23.32v12.8l13.82-12.8z M16.4 17.6H6.06V8H16.4v9.6zM6.05 23.2h25.9M21.6 17.6h10.35M21.6 11.2h10.35M6.05 28.8h25.9M6.05 34.4h12.1" />
</svg>
